X:10358
T:Aus sch\"oner Zeit (Walzer) GC (wz05047)
M:3/4
L:1/4
K:G %%MIDI gchordon
"G"(B3 | B)dg | b2a/2g/2 | d3 | "D7"f2e | cf>e | "G"e2d | B3 | (B3 | B)dg | 
b2a/2g/2 | d3 | "Am"e/2c/2e>a | "D7"Tfef |1 "G"(g3 | g)zz :|2 "G"(g3 | g)d/2B/2 d/2g/2 |: "D7"fff | "C"eee | 
"G"d/2d/2dd | zed | "D7"A/2A/2AA | zed | "G"B/2B/2BB | zd/2B/2 d/2g/2 | "D7"fff | "C"eee | 
"G"d/2d/2dd | zgb | "Am"a2e | "D7"fef |1 "G"(g3 | g)zz :|2 "G"(g3 | g)zG, || [K:C] "C"G3 | E3 | 
(c3 | c)BA | G3 | C2D | (E3 | E)zE | "G7"D2^C | D2E | F2G | B2A | 
"C"A3 | G^F=F | (E3 | E)zC | G3 | E3 | c3 | cBc | d2c | G2F | 
"Dm"(E3 | D)zD | "G7"B2A | "C"G2C | "G7"B,2F | "C"E2D | "F"A,2C | "G7"B,2D | "C"(C3 | C)zG |: 
"G7"G2F | D2A | "C"A2G | E2c | "G7"c2B | DEF | "C"A2G | E2G | "G7"G2F | 
D2B | "C"d2c | G2E | "Dm"B2A | "G7"GD>E |1 "C"(C3 | C)zG :|2 "C"(C3 | C)zz |] 
% June 2016

